X:92
T:Old Brown Slipper, The
T:Seanslip\'eir\'in Donn, An
T:An Seanslip\'eir\'in Donn
R:slip jig
D:Randal Bays: Katy Bar the Door
Z:hn-slipjig-92
M:9/8
L:1/8
K:G
B3 B2A GED | Dgg g2e dBA | B3 B2A GED | EGG G2A G3 :|
|: e2f g2e fdB | Bee efe dBA |1 Bef g2e fed |
Bee e2f e3 :|2 B3 B2A GED | EGG G2A G3 ||

